images/16759292.svg

<?xml version="1.0" encoding="UTF-8"?>
<svg xmlns="http://www.w3.org/2000/svg" xmlns:xlink="http://www.w3.org/1999/xlink" width="300pt" height="300pt" viewBox="0 0 300 300" version="1.1">
<defs>
<g>
<symbol overflow="visible" id="glyph0-0">
<path style="stroke:none;" d="M 0.75 2.65625 L 0.75 -10.578125 L 8.25 -10.578125 L 8.25 2.65625 Z M 1.59375 1.8125 L 7.40625 1.8125 L 7.40625 -9.734375 L 1.59375 -9.734375 Z M 1.59375 1.8125 "/>
</symbol>
<symbol overflow="visible" id="glyph0-1">
<path style="stroke:none;" d="M 1.46875 -10.9375 L 3.46875 -10.9375 L 8.3125 -1.78125 L 8.3125 -10.9375 L 9.75 -10.9375 L 9.75 0 L 7.75 0 L 2.90625 -9.140625 L 2.90625 0 L 1.46875 0 Z M 1.46875 -10.9375 "/>
</symbol>
<symbol overflow="visible" id="glyph0-2">
<path style="stroke:none;" d="M 5.90625 -9.9375 C 4.832031 -9.9375 3.976562 -9.535156 3.34375 -8.734375 C 2.71875 -7.929688 2.40625 -6.835938 2.40625 -5.453125 C 2.40625 -4.078125 2.71875 -2.988281 3.34375 -2.1875 C 3.976562 -1.382812 4.832031 -0.984375 5.90625 -0.984375 C 6.976562 -0.984375 7.828125 -1.382812 8.453125 -2.1875 C 9.085938 -2.988281 9.40625 -4.078125 9.40625 -5.453125 C 9.40625 -6.835938 9.085938 -7.929688 8.453125 -8.734375 C 7.828125 -9.535156 6.976562 -9.9375 5.90625 -9.9375 Z M 5.90625 -11.140625 C 7.4375 -11.140625 8.660156 -10.625 9.578125 -9.59375 C 10.503906 -8.5625 10.96875 -7.179688 10.96875 -5.453125 C 10.96875 -3.734375 10.503906 -2.359375 9.578125 -1.328125 C 8.660156 -0.296875 7.4375 0.21875 5.90625 0.21875 C 4.375 0.21875 3.144531 -0.289062 2.21875 -1.3125 C 1.300781 -2.34375 0.84375 -3.722656 0.84375 -5.453125 C 0.84375 -7.179688 1.300781 -8.5625 2.21875 -9.59375 C 3.144531 -10.625 4.375 -11.140625 5.90625 -11.140625 Z M 5.90625 -11.140625 "/>
</symbol>
</g>
</defs>
<g id="surface35317">
<rect x="0" y="0" width="300" height="300" style="fill:rgb(100%,100%,100%);fill-opacity:1;stroke:none;"/>
<path style="fill:none;stroke-width:1.2;stroke-linecap:butt;stroke-linejoin:miter;stroke:rgb(0%,0%,0%);stroke-opacity:1;stroke-miterlimit:10;" d="M 98.542969 224.039062 L 63.992188 231.355469 "/>
<path style="fill:none;stroke-width:1.2;stroke-linecap:butt;stroke-linejoin:miter;stroke:rgb(0%,0%,0%);stroke-opacity:1;stroke-miterlimit:10;" d="M 159.472656 176.808594 L 98.542969 224.039062 "/>
<path style="fill:none;stroke-width:1.2;stroke-linecap:butt;stroke-linejoin:miter;stroke:rgb(0%,0%,0%);stroke-opacity:1;stroke-miterlimit:10;" d="M 63.992188 231.355469 L 55.175781 216.054688 "/>
<path style="fill:none;stroke-width:1.2;stroke-linecap:butt;stroke-linejoin:miter;stroke:rgb(0%,0%,100%);stroke-opacity:1;stroke-miterlimit:10;" d="M 55.175781 216.054688 L 46.359375 200.753906 "/>
<path style="fill:none;stroke-width:1.2;stroke-linecap:butt;stroke-linejoin:miter;stroke:rgb(0%,0%,100%);stroke-opacity:1;stroke-miterlimit:10;" d="M 46.359375 200.753906 L 40.804688 183.992188 "/>
<path style="fill:none;stroke-width:1.2;stroke-linecap:butt;stroke-linejoin:miter;stroke:rgb(0%,0%,0%);stroke-opacity:1;stroke-miterlimit:10;" d="M 40.804688 183.992188 L 35.25 167.226562 "/>
<path style="fill:none;stroke-width:1.2;stroke-linecap:butt;stroke-linejoin:miter;stroke:rgb(0%,0%,0%);stroke-opacity:1;stroke-miterlimit:10;" d="M 80.945312 207.898438 L 63.652344 204.324219 "/>
<path style="fill:none;stroke-width:1.2;stroke-linecap:butt;stroke-linejoin:miter;stroke:rgb(0%,0%,100%);stroke-opacity:1;stroke-miterlimit:10;" d="M 63.652344 204.324219 L 46.359375 200.753906 "/>
<path style=" stroke:none;fill-rule:nonzero;fill:rgb(100%,100%,100%);fill-opacity:1;" d="M 41.359375 191.753906 L 52.359375 191.753906 L 52.359375 209.753906 L 41.359375 209.753906 Z M 41.359375 191.753906 "/>
<g style="fill:rgb(0%,0%,100%);fill-opacity:1;">
  <use xlink:href="#glyph0-1" x="41.359375" y="205.368164"/>
</g>
<path style="fill:none;stroke-width:1.2;stroke-linecap:butt;stroke-linejoin:miter;stroke:rgb(0%,0%,0%);stroke-opacity:1;stroke-miterlimit:10;" d="M 35.25 167.226562 L 58.730469 140.84375 "/>
<path style="fill:none;stroke-width:1.2;stroke-linecap:butt;stroke-linejoin:miter;stroke:rgb(0%,0%,0%);stroke-opacity:1;stroke-miterlimit:10;" d="M 58.730469 140.84375 L 42.75 109.347656 "/>
<path style="fill:none;stroke-width:1.2;stroke-linecap:butt;stroke-linejoin:miter;stroke:rgb(0%,0%,0%);stroke-opacity:1;stroke-miterlimit:10;" d="M 64.542969 133.933594 L 51.757812 108.738281 "/>
<path style="fill:none;stroke-width:1.2;stroke-linecap:butt;stroke-linejoin:miter;stroke:rgb(0%,0%,0%);stroke-opacity:1;stroke-miterlimit:10;" d="M 93.320312 147.988281 L 58.730469 140.84375 "/>
<path style="fill:none;stroke-width:1.2;stroke-linecap:butt;stroke-linejoin:miter;stroke:rgb(0%,0%,0%);stroke-opacity:1;stroke-miterlimit:10;" d="M 42.75 109.347656 L 57.410156 77.214844 "/>
<path style="fill:none;stroke-width:1.2;stroke-linecap:butt;stroke-linejoin:miter;stroke:rgb(0%,0%,0%);stroke-opacity:1;stroke-miterlimit:10;" d="M 57.410156 77.214844 L 74.542969 72.929688 "/>
<path style="fill:none;stroke-width:1.2;stroke-linecap:butt;stroke-linejoin:miter;stroke:rgb(100%,0%,0%);stroke-opacity:1;stroke-miterlimit:10;" d="M 74.542969 72.929688 L 91.671875 68.644531 "/>
<path style="fill:none;stroke-width:1.2;stroke-linecap:butt;stroke-linejoin:miter;stroke:rgb(100%,0%,0%);stroke-opacity:1;stroke-miterlimit:10;" d="M 91.671875 68.644531 L 105.707031 79.367188 "/>
<path style="fill:none;stroke-width:1.2;stroke-linecap:butt;stroke-linejoin:miter;stroke:rgb(0%,0%,0%);stroke-opacity:1;stroke-miterlimit:10;" d="M 105.707031 79.367188 L 119.738281 90.089844 "/>
<path style=" stroke:none;fill-rule:nonzero;fill:rgb(100%,100%,100%);fill-opacity:1;" d="M 85.671875 59.644531 L 97.671875 59.644531 L 97.671875 77.644531 L 85.671875 77.644531 Z M 85.671875 59.644531 "/>
<g style="fill:rgb(100%,0%,0%);fill-opacity:1;">
  <use xlink:href="#glyph0-2" x="85.671875" y="73.258789"/>
</g>
<path style="fill:none;stroke-width:1.2;stroke-linecap:butt;stroke-linejoin:miter;stroke:rgb(0%,0%,0%);stroke-opacity:1;stroke-miterlimit:10;" d="M 119.738281 90.089844 L 149.953125 71.796875 "/>
<path style="fill:none;stroke-width:1.2;stroke-linecap:butt;stroke-linejoin:miter;stroke:rgb(0%,0%,0%);stroke-opacity:1;stroke-miterlimit:10;" d="M 120.46875 125.398438 L 119.738281 90.089844 "/>
<path style="fill:none;stroke-width:1.2;stroke-linecap:butt;stroke-linejoin:miter;stroke:rgb(0%,0%,0%);stroke-opacity:1;stroke-miterlimit:10;" d="M 149.953125 71.796875 L 180.898438 88.820312 "/>
<path style="fill:none;stroke-width:1.2;stroke-linecap:butt;stroke-linejoin:miter;stroke:rgb(0%,0%,0%);stroke-opacity:1;stroke-miterlimit:10;" d="M 183.050781 92.375 L 198.15625 83.230469 "/>
<path style="fill:none;stroke-width:1.2;stroke-linecap:butt;stroke-linejoin:miter;stroke:rgb(100%,0%,0%);stroke-opacity:1;stroke-miterlimit:10;" d="M 198.15625 83.230469 L 213.261719 74.085938 "/>
<path style="fill:none;stroke-width:1.2;stroke-linecap:butt;stroke-linejoin:miter;stroke:rgb(0%,0%,0%);stroke-opacity:1;stroke-miterlimit:10;" d="M 178.746094 85.265625 L 193.851562 76.121094 "/>
<path style="fill:none;stroke-width:1.2;stroke-linecap:butt;stroke-linejoin:miter;stroke:rgb(100%,0%,0%);stroke-opacity:1;stroke-miterlimit:10;" d="M 193.851562 76.121094 L 208.960938 66.976562 "/>
<path style="fill:none;stroke-width:1.2;stroke-linecap:butt;stroke-linejoin:miter;stroke:rgb(0%,0%,0%);stroke-opacity:1;stroke-miterlimit:10;" d="M 180.898438 88.820312 L 181.265625 106.476562 "/>
<path style="fill:none;stroke-width:1.2;stroke-linecap:butt;stroke-linejoin:miter;stroke:rgb(0%,0%,100%);stroke-opacity:1;stroke-miterlimit:10;" d="M 181.265625 106.476562 L 181.628906 124.132812 "/>
<path style=" stroke:none;fill-rule:nonzero;fill:rgb(100%,100%,100%);fill-opacity:1;" d="M 205.113281 61.53125 L 217.113281 61.53125 L 217.113281 79.53125 L 205.113281 79.53125 Z M 205.113281 61.53125 "/>
<g style="fill:rgb(100%,0%,0%);fill-opacity:1;">
  <use xlink:href="#glyph0-2" x="205.113281" y="75.145508"/>
</g>
<path style="fill:none;stroke-width:1;stroke-linecap:butt;stroke-linejoin:miter;stroke:rgb(0%,0%,0%);stroke-opacity:1;stroke-miterlimit:10;" d="M 151.417969 142.421875 L 151.417969 142.421875 M 154.214844 141.335938 L 153.671875 140.445312 M 157.011719 140.253906 L 155.929688 138.46875 M 159.808594 139.167969 L 158.1875 136.492188 M 162.605469 138.085938 L 160.445312 134.515625 M 165.402344 137 L 162.703125 132.542969 M 168.199219 135.917969 L 164.960938 130.566406 M 170.996094 134.832031 L 167.21875 128.589844 M 173.796875 133.75 L 169.476562 126.613281 M 176.59375 132.664062 L 171.734375 124.636719 M 179.390625 131.582031 L 173.988281 122.660156 M 182.1875 130.496094 L 176.246094 120.6875 M 184.859375 129.460938 L 178.402344 118.800781 "/>
<path style="fill:none;stroke-width:1.2;stroke-linecap:butt;stroke-linejoin:miter;stroke:rgb(0%,0%,0%);stroke-opacity:1;stroke-miterlimit:10;" d="M 208.363281 147.214844 L 194.996094 135.671875 "/>
<path style="fill:none;stroke-width:1.2;stroke-linecap:butt;stroke-linejoin:miter;stroke:rgb(0%,0%,100%);stroke-opacity:1;stroke-miterlimit:10;" d="M 194.996094 135.671875 L 181.628906 124.132812 "/>
<path style=" stroke:none;fill-rule:nonzero;fill:rgb(100%,100%,100%);fill-opacity:1;" d="M 176.628906 115.132812 L 187.628906 115.132812 L 187.628906 133.132812 L 176.628906 133.132812 Z M 176.628906 115.132812 "/>
<g style="fill:rgb(0%,0%,100%);fill-opacity:1;">
  <use xlink:href="#glyph0-1" x="176.628906" y="128.74707"/>
</g>
<path style="fill:none;stroke-width:1.2;stroke-linecap:butt;stroke-linejoin:miter;stroke:rgb(0%,0%,0%);stroke-opacity:1;stroke-miterlimit:10;" d="M 151.417969 142.421875 L 120.46875 125.398438 "/>
<path style="fill:none;stroke-width:1.2;stroke-linecap:butt;stroke-linejoin:miter;stroke:rgb(0%,0%,0%);stroke-opacity:1;stroke-miterlimit:10;" d="M 159.472656 176.808594 L 151.417969 142.421875 "/>
<path style=" stroke:none;fill-rule:nonzero;fill:rgb(0%,0%,0%);fill-opacity:1;" d="M 120.46875 125.398438 L 89.332031 143.195312 L 97.304688 152.777344 Z M 120.46875 125.398438 "/>
<path style="fill:none;stroke-width:1.2;stroke-linecap:butt;stroke-linejoin:miter;stroke:rgb(0%,0%,0%);stroke-opacity:1;stroke-miterlimit:10;" d="M 93.320312 147.988281 L 104.425781 181.515625 "/>
<path style="fill:none;stroke-width:1;stroke-linecap:butt;stroke-linejoin:miter;stroke:rgb(0%,0%,0%);stroke-opacity:1;stroke-miterlimit:10;" d="M 80.945312 207.898438 L 80.945312 207.898438 M 83.300781 206.035156 L 82.519531 205.34375 M 85.652344 204.175781 L 84.097656 202.789062 M 88.007812 202.316406 L 85.671875 200.238281 M 90.359375 200.457031 L 87.246094 197.683594 M 92.714844 198.597656 L 88.820312 195.128906 M 95.066406 196.734375 L 90.394531 192.574219 M 97.421875 194.875 L 91.96875 190.023438 M 99.773438 193.015625 L 93.542969 187.46875 M 102.128906 191.15625 L 95.117188 184.914062 M 104.480469 189.292969 L 96.691406 182.363281 M 106.835938 187.433594 L 98.269531 179.808594 M 109.082031 185.65625 L 99.769531 177.371094 "/>
<path style="fill:none;stroke-width:1.2;stroke-linecap:butt;stroke-linejoin:miter;stroke:rgb(0%,0%,0%);stroke-opacity:1;stroke-miterlimit:10;" d="M 80.945312 207.898438 L 159.472656 176.808594 "/>
<path style="fill:none;stroke-width:1;stroke-linecap:butt;stroke-linejoin:miter;stroke:rgb(0%,0%,0%);stroke-opacity:1;stroke-miterlimit:10;" d="M 159.472656 176.808594 L 159.472656 176.808594 M 162.375 177.574219 L 162.460938 176.535156 M 165.273438 178.34375 L 165.449219 176.265625 M 168.175781 179.109375 L 168.4375 175.992188 M 171.074219 179.878906 L 171.425781 175.722656 M 173.976562 180.644531 L 174.414062 175.449219 M 176.875 181.410156 L 177.398438 175.175781 M 179.777344 182.179688 L 180.386719 174.90625 M 182.675781 182.945312 L 183.375 174.632812 M 185.574219 183.714844 L 186.363281 174.363281 M 188.476562 184.480469 L 189.351562 174.089844 M 191.375 185.25 L 192.339844 173.820312 M 194.144531 185.980469 L 195.191406 173.558594 "/>
<path style="fill:none;stroke-width:1.2;stroke-linecap:butt;stroke-linejoin:miter;stroke:rgb(0%,0%,0%);stroke-opacity:1;stroke-miterlimit:10;" d="M 194.667969 179.769531 L 216.015625 207.90625 "/>
<path style="fill:none;stroke-width:1.2;stroke-linecap:butt;stroke-linejoin:miter;stroke:rgb(0%,0%,0%);stroke-opacity:1;stroke-miterlimit:10;" d="M 203.421875 177.5625 L 220.5 200.070312 "/>
<path style="fill:none;stroke-width:1.2;stroke-linecap:butt;stroke-linejoin:miter;stroke:rgb(0%,0%,0%);stroke-opacity:1;stroke-miterlimit:10;" d="M 208.363281 147.214844 L 194.667969 179.769531 "/>
<path style="fill:none;stroke-width:1.2;stroke-linecap:butt;stroke-linejoin:miter;stroke:rgb(0%,0%,0%);stroke-opacity:1;stroke-miterlimit:10;" d="M 216.015625 207.90625 L 251.058594 203.488281 "/>
<path style="fill:none;stroke-width:1.2;stroke-linecap:butt;stroke-linejoin:miter;stroke:rgb(0%,0%,0%);stroke-opacity:1;stroke-miterlimit:10;" d="M 251.058594 203.488281 L 264.75 170.933594 "/>
<path style="fill:none;stroke-width:1.2;stroke-linecap:butt;stroke-linejoin:miter;stroke:rgb(0%,0%,0%);stroke-opacity:1;stroke-miterlimit:10;" d="M 244.765625 197.011719 L 255.71875 170.964844 "/>
<path style="fill:none;stroke-width:1.2;stroke-linecap:butt;stroke-linejoin:miter;stroke:rgb(0%,0%,0%);stroke-opacity:1;stroke-miterlimit:10;" d="M 264.75 170.933594 L 243.402344 142.796875 "/>
<path style="fill:none;stroke-width:1.2;stroke-linecap:butt;stroke-linejoin:miter;stroke:rgb(0%,0%,0%);stroke-opacity:1;stroke-miterlimit:10;" d="M 243.402344 142.796875 L 208.363281 147.214844 "/>
<path style="fill:none;stroke-width:1.2;stroke-linecap:butt;stroke-linejoin:miter;stroke:rgb(0%,0%,0%);stroke-opacity:1;stroke-miterlimit:10;" d="M 240.9375 151.480469 L 212.90625 155.015625 "/>
</g>
</svg>

<svg xmlns="http://www.w3.org/2000/svg" xmlns:xlink="http://www.w3.org/1999/xlink" width="300pt" height="300pt" viewBox="0 0 300 300"><defs><symbol overflow="visible"><path d="M.75 2.656v-13.234h7.5V2.656zm.844-.844h5.812V-9.733H1.594zm0 0"/></symbol><symbol overflow="visible" id="a"><path d="M1.47-10.938h2L8.31-1.78v-9.158H9.75V0h-2L2.906-9.14V0H1.47zm0 0"/></symbol><symbol overflow="visible" id="b"><path d="M5.906-9.938c-1.074 0-1.93.403-2.562 1.204-.625.804-.938 1.898-.938 3.28 0 1.376.313 2.466.938 3.266.633.805 1.488 1.204 2.562 1.204 1.07 0 1.922-.4 2.547-1.204.633-.8.953-1.89.953-3.265 0-1.383-.32-2.477-.953-3.28-.625-.802-1.476-1.204-2.547-1.204zm0-1.203c1.532 0 2.754.515 3.672 1.546.926 1.03 1.39 2.414 1.39 4.14 0 1.72-.464 3.095-1.39 4.126C8.66-.298 7.438.22 5.906.22c-1.53 0-2.76-.51-3.687-1.532C1.3-2.345.843-3.723.843-5.452c0-1.728.457-3.11 1.375-4.142.925-1.03 2.155-1.547 3.686-1.547zm0 0"/></symbol></defs><g><path fill="#fff" d="M0 0h300v300H0z"/><path d="M98.543 224.04l-34.55 7.315M159.473 176.81l-60.93 47.23M63.992 231.355l-8.816-15.3" stroke-width="1.2" stroke="#000" stroke-miterlimit="10" fill="none"/><path d="M55.176 216.055l-8.817-15.3M46.36 200.754l-5.555-16.762" stroke-width="1.2" stroke="#00f" stroke-miterlimit="10" fill="none"/><path d="M40.805 183.992l-5.555-16.765M80.945 207.898l-17.293-3.574" stroke-width="1.2" stroke="#000" stroke-miterlimit="10" fill="none"/><path d="M63.652 204.324l-17.293-3.57" stroke-width="1.2" stroke="#00f" stroke-miterlimit="10" fill="none"/><path d="M41.36 191.754h11v18h-11zm0 0" fill="#fff"/><use xlink:href="#a" x="41.359" y="205.368" fill="#00f"/><path d="M35.25 167.227l23.48-26.383M58.73 140.844l-15.98-31.496M64.543 133.934l-12.785-25.196M93.32 147.988l-34.59-7.144M42.75 109.348l14.66-32.133M57.41 77.215l17.133-4.285" stroke-width="1.2" stroke="#000" stroke-miterlimit="10" fill="none"/><path d="M74.543 72.93l17.13-4.285M91.672 68.645l14.035 10.722" stroke-width="1.2" stroke="#f00" stroke-miterlimit="10" fill="none"/><path d="M105.707 79.367l14.03 10.723" stroke-width="1.2" stroke="#000" stroke-miterlimit="10" fill="none"/><path d="M85.672 59.645h12v18h-12zm0 0" fill="#fff"/><use xlink:href="#b" x="85.672" y="73.259" fill="#f00"/><path d="M119.738 90.09l30.215-18.293M120.47 125.398l-.732-35.308M149.953 71.797l30.945 17.023M183.05 92.375l15.106-9.145" stroke-width="1.2" stroke="#000" stroke-miterlimit="10" fill="none"/><path d="M198.156 83.23l15.106-9.144" stroke-width="1.2" stroke="#f00" stroke-miterlimit="10" fill="none"/><path d="M178.746 85.266l15.106-9.145" stroke-width="1.2" stroke="#000" stroke-miterlimit="10" fill="none"/><path d="M193.852 76.12l15.11-9.143" stroke-width="1.2" stroke="#f00" stroke-miterlimit="10" fill="none"/><path d="M180.898 88.82l.368 17.657" stroke-width="1.2" stroke="#000" stroke-miterlimit="10" fill="none"/><path d="M181.266 106.477l.363 17.656" stroke-width="1.2" stroke="#00f" stroke-miterlimit="10" fill="none"/><path d="M205.113 61.53h12v18h-12zm0 0" fill="#fff"/><use xlink:href="#b" x="205.113" y="75.146" fill="#f00"/><path d="M151.418 142.422m2.797-1.086l-.543-.89m3.34-.192l-1.082-1.785m3.88.698l-1.623-2.676m4.418 1.594l-2.16-3.57m4.957 2.484l-2.7-4.457m5.497 3.375l-3.24-5.352m6.036 4.266l-3.777-6.242m6.577 5.16l-4.32-7.137m7.117 6.05l-4.86-8.026m7.657 6.945l-5.402-8.922m8.2 7.836l-5.942-9.81m8.613 8.775L178.4 118.8" stroke="#000" stroke-miterlimit="10" fill="none"/><path d="M208.363 147.215l-13.367-11.543" stroke-width="1.2" stroke="#000" stroke-miterlimit="10" fill="none"/><path d="M194.996 135.672l-13.367-11.54" stroke-width="1.2" stroke="#00f" stroke-miterlimit="10" fill="none"/><path d="M176.63 115.133h11v18h-11zm0 0" fill="#fff"/><use xlink:href="#a" x="176.629" y="128.747" fill="#00f"/><path d="M151.418 142.422l-30.95-17.024M159.473 176.81l-8.055-34.388" stroke-width="1.2" stroke="#000" stroke-miterlimit="10" fill="none"/><path d="M120.47 125.398L89.33 143.195l7.973 9.582zm0 0"/><path d="M93.32 147.988l11.106 33.528" stroke-width="1.2" stroke="#000" stroke-miterlimit="10" fill="none"/><path d="M80.945 207.898m2.356-1.863l-.78-.69m3.132-1.17l-1.554-1.386m3.91-.474l-2.336-2.078m4.687.22l-3.114-2.774m5.47.914l-3.896-3.47m6.246 1.606l-4.67-4.16m7.026 2.3l-5.453-4.85m7.803 2.992l-6.23-5.547m8.586 3.686l-7.013-6.242m9.363 4.38l-7.79-6.93m10.146 5.07l-8.566-7.625m10.812 5.846l-9.312-8.285" stroke="#000" stroke-miterlimit="10" fill="none"/><path d="M80.945 207.898l78.528-31.09" stroke-width="1.2" stroke="#000" stroke-miterlimit="10" fill="none"/><path d="M159.473 176.81m2.902.764l.086-1.04m2.813 1.81l.176-2.078m2.726 2.843l.262-3.118m2.636 3.887l.352-4.157m2.55 4.922l.438-5.196m2.46 5.96l.524-6.234m2.38 7.004l.61-7.274m2.288 8.04l.7-8.313m2.198 9.082l.79-9.352m2.113 10.117l.875-10.39m2.023 11.16l.965-11.43m1.805 12.16l1.046-12.42" stroke="#000" stroke-miterlimit="10" fill="none"/><path d="M194.668 179.77l21.348 28.136M203.422 177.563L220.5 200.07M208.363 147.215l-13.695 32.555M216.016 207.906l35.043-4.418M251.06 203.488l13.69-32.554M244.766 197.012l10.953-26.047M264.75 170.934l-21.348-28.137M243.402 142.797l-35.04 4.418M240.938 151.48l-28.032 3.536" stroke-width="1.2" stroke="#000" stroke-miterlimit="10" fill="none"/></g></svg>
